svgs/google_meet.svg

<svg width="24" height="24" viewBox="0 0 24 24" fill="none" xmlns="http://www.w3.org/2000/svg">
<path d="M16.3589 19.9487H9V15H13V12.4563L17.8973 8.29775V8.30179L20.7333 5.89554C21.233 5.47152 22.0002 5.8267 22.0002 6.48208V17.5181C22.0002 18.1734 21.233 18.5286 20.7333 18.1046L17.8973 15.6984V18.4103C17.8973 19.2599 17.2085 19.9487 16.3589 19.9487Z" fill="#FFF1C0"/>
<path d="M17.8973 6V5.58976C17.8973 4.7401 17.2085 4.0513 16.3589 4.0513H6.8718L1.99988 8.92304V18.4103C1.99988 19.2599 2.68866 19.9487 3.53833 19.9487H7V10.5H2V9H13V10.1586L17.8973 6Z" fill="#FFF1C0"/>
<path d="M22.0002 17.5181C22.0002 18.1734 21.233 18.5286 20.7333 18.1046L17.8973 15.6984V18.4103C17.8973 19.2599 17.2085 19.9487 16.3589 19.9487H8.5V15H13V12.4563L17.8973 8.29774V8.30179L20.7333 5.89554C21.233 5.47152 22.0002 5.8267 22.0002 6.48208V17.5181Z" fill="#FFF1C0"/>
</svg>

<svg xmlns="http://www.w3.org/2000/svg" width="24" height="24" fill="none" viewBox="0 0 24 24"><path fill="#FFF1C0" d="M16.359 19.949H9V15h4v-2.544l4.897-4.158v.004l2.836-2.406A.77.77 0 0 1 22 6.482v11.036a.77.77 0 0 1-1.267.587l-2.836-2.407v2.712c0 .85-.688 1.539-1.538 1.539"/><path fill="#FFF1C0" d="M17.897 6v-.41c0-.85-.688-1.539-1.538-1.539H6.872L2 8.923v9.487c0 .85.689 1.539 1.538 1.539H7V10.5H2V9h11v1.159z"/><path fill="#FFF1C0" d="M22 17.518a.77.77 0 0 1-1.267.587l-2.836-2.407v2.712c0 .85-.688 1.539-1.538 1.539H8.5V15H13v-2.544l4.897-4.158v.004l2.836-2.406A.77.77 0 0 1 22 6.482z"/></svg>
